X:1
T:Title
%%score { ( 1 3 4 ) | ( 2 5 ) }
L:1/8
M:4/4
K:Ab
V:1 treble nm="Grand Piano"
V:3 treble 
V:4 treble 
V:2 bass 
V:5 bass 
V:1
 z4 z2[Q:1/4=100] [CE][CA] | [Ec]2 [Ec]2 [Ec][EB][A,EA][CEB] | [DFA]2 [A,DF]2 [CE]2 [CE][EA] | %3
 G2 A2 BE[EA][EB] | %4
[M:33/32] z/4 z/4 z/4 z/4 z/4 z/4 z/4 z/4 z/4 z/4 z/4 z/4 z/4 z/4 z/ B/4-B/4-B/4-B/4-B/4-B/4-B/-<B/ z/4 z/4 z/4 z/4 z/4 z/ | %5
[M:4/4] (9:8:7[Ec]2 [Ec]2- [Ec]/ [Ec][EB][A,EA]3/2[CEB] | (3:2:2[DFA]3 [A,DF]3 z4 | %7
[M:17/16] (9:8:14[EA]2- [EA]/8 B2- B/8c-c/-c3/32[_Ge]/-[Ge]-[Ge]3/32[Fd]-[Fd]/16[FB]- [FB]/16 | %8
[M:4/4] (3:2:2[EA]3 [DG]3 [CA]3- [CA]/4 z/4 z/ |[M:1/8] c |[M:4/4] (3:2:2e3 e3 z4 | %11
 (3:2:2[EAc]3 [EAc]3 [EAc]3- [EAc]/4 z/4 z/ | (5:4:4[FA]2 [FB]/ [FA][DF]3/2 z4 | %13
[M:7/8] z2 B2 z z2 |[M:1/8] c |[M:4/4] (3:2:2e3 e3 z4 | %16
 (3:2:2[EAc]3 [EAc]3 [EAc]3- [EAc]/4 z/4 z/ | %17
 (5:4:4[FA]2 [FB]/ [FA][DF]3/2 z2 (3:2:2[EA]3/2[Fd]3/2 |[M:7/8] [Ec]2- [Ec]/4 z/4 z/ z z z2 |] %19
V:2
 z4 z2 [A,,A,][A,,A,] | [A,,A,]2 [A,,A,]2 [A,,A,][B,,G,]C,A,, | D,2 D,2 [A,,A,]2 [A,,A,][C,A,] | %3
 [E,B,E]2 [E,CE]2 [E,DE][D,G,][C,A,][B,,G,] | %4
[M:33/32] [A,,A,]/4-[A,,A,]/4-[A,,A,]/4-[A,,A,]/4-[A,,A,]/-<[A,,A,]/[C,A,]/4-[C,A,]/4-[C,A,]/4-[C,A,]/4-[C,A,]/-<[C,A,]/[G,E]/4-[G,E]/4-[G,E]/4-[G,E]/4-[G,E]/4-[G,E]/4-[G,E]/-<[G,E]/ z/ [B,,G,]/4-[B,,G,]/-<[B,,G,]/ | %5
[M:4/4] (9:8:7[A,,A,]2 [A,,A,]2- [A,,A,]/ [A,,A,][B,,G,]C,3/2A,, | %6
 z4 (5:4:4[A,,A,]2- [A,,A,]/ [A,,A,][A,,A,]3/2 | %7
[M:17/16] (9:8:14[C,A,]2- [C,A,]/8 [E,G,E]2- [E,G,E]/8[A,E]-[A,E]/-[A,E]3/32[C,A,]/-[C,A,]-[C,A,]3/32[D,A,]-[D,A,]/16[D,D]- [D,D]/16 | %8
[M:4/4] (3:2:2[E,C]3 [E,B,]3 [A,,A,]3- [A,,A,]/4 z/4 z/ |[M:1/8][K:treble] [A,E] | %10
[M:4/4] (3:2:2[A,CA]3 [A,CA]3 [CA]3- [CA]/4 z/4 z/ | %11
 (3:2:2[A,,A,]3 [A,,A,]3 [A,,A,]3- [A,,A,]/4 z/4 z/ | (5:4:4[D,D]2 [D,D]/ [D,D][D,A,]3/2 z4 | %13
[M:7/8] A,2- [E,-G,-A,E-]/<[E,G,E]/- [E,G,E] E3 |[M:1/8] [A,E] | %15
[M:4/4][K:treble] (3:2:2[A,CA]3 [A,CA]3 [CA]3- [CA]/4 z/4 z/ | %16
 (3:2:2[A,,A,]3 [A,,A,]3 [A,,A,]3- [A,,A,]/4 z/4 z/ | %17
 (5:4:4[D,D]2 [D,D]/ [D,D][D,A,]3/2 z2 (3:2:2[C,A,]3/2[D,A,]3/2 | %18
[M:7/8] A,2- A,/4 z/4 z/ z [A,,A,]3 |] %19
V:3
 x8 | x8 | x8 | x8 | %4
[M:33/32] [Ec]/4-[Ec]/4-[Ec]/4-[Ec]/4-[Ec]/-<[Ec]/[Ec]/4-[Ec]/4-[Ec]/4-[Ec]/4-[Ec]/-<[Ec]/ z/4 z/4 z/4 z/4 z/ D,3/4A3/4-[E-AB-]/[EB]3/4 | %5
[M:4/4] x8 | z4 (5:4:4[CE]2- [CE]/ [CE][CE]3/2 |[M:17/16] x8 |[M:4/4] x8 |[M:1/8] x | %10
[M:4/4] z4 (3:2:2e4 [CA]2 | x8 | z4 (5:4:4[CE][CA]3/2[EA][Ec]3/2 |[M:7/8] c2- c/4 z/4 z/ z B3- | %14
[M:1/8] B/4 z/4 z/ |[M:4/4] z4 (3:2:2e4 [CA]2 | x8 | z4 [CE]2- [CE]/4 z/4 z/ z | %18
[M:7/8] z2 [DB]2- [DB]/4 z/4 z/ z2 |] %19
V:4
 x8 | x8 | x8 | x8 | %4
[M:33/32] z/4 z/4 z/4 z/4 z/4 z/4 z/4 z/4 z/4 z/4 z/4 z/4 z/4 z/4 z/4 z/4 z/4 z/4 z/4 z/4 z/4 z/4 z/4 z/ E3/4 z/4 z/4 z/4 z/ | %5
[M:4/4] x8 | x8 |[M:17/16] x8 |[M:4/4] x8 |[M:1/8] x |[M:4/4] x8 | x8 | x8 |[M:7/8] x7 |[M:1/8] x | %15
[M:4/4] x8 | x8 | x8 |[M:7/8] z z z2 [CA]3 |] %19
V:5
 x8 | x8 | x8 | x8 | %4
[M:33/32] z/4 z/4 z/4 z/4 z/4 z/4 z/4 z/4 z/4 z/4 z/4 z/4 z/4 z/4 z/ E,/4-E,/4-E,/-<E,/ z/ [C,A,]/4-[C,A,]/4-[C,A,]/-<[C,A,]/ z/4 z/ | %5
[M:4/4] x8 | (3:2:2D,3 D,3 z4 |[M:17/16] x8 |[M:4/4] x8 |[M:1/8][K:treble] x | %10
[M:4/4] z4 (3:2:2A,4 [A,,A,]2 | x8 | z4 (5:4:4[A,,A,][A,,A,]3/2[C,A,][A,,A,]3/2 | %13
[M:7/8] [E,E]2 z2 [E,G,]3- |[M:1/8] [E,G,]/4 z/4 z/ |[M:4/4][K:treble] z4 (3:2:2A,4 [A,,A,]2 | x8 | %17
 z4 [A,,A,]2- [A,,A,]/4 z/4 z/ z |[M:7/8] E,2 [E,G,]2- [E,G,]/4 z/4 z/ z2 |] %19

